X:1
T:Only Trust the Savior’s Promise
T:Hubert Platt Main
T:Only Trust the Savior’s Promise
T:Public Domain
T:Public Domain
C:Hubert Platt Main
Z:Public Domain
%%score ( 1 2 ) ( 3 4 )
L:1/8
M:3/4
K:Ab
V:1 treble 
V:2 treble 
V:3 bass 
V:4 bass 
V:1
 [Ec]>[DB] | [CA]3 [=EG] [FB][FA] | [DF]2 [FA]2 [EG]>[DF] | [CE]3 [Ec] [=DB]>[DA] | %4
w: 1.~When our|way is hedged a-|bout us, And our|cross too great to|
w: 2.~O ’tis|prayer that brings a|bless- ing, When our|hope on Him is|
w: 3.~O the|joy of sweet com-|mun- ion, When we|know that He is|
w: 4.~Why, O|why should we be|trou- bled, When the|Lord Him- self de-|
 [EB]4 [Ae]>[Ed] | [Ec]3 [=EG] [FB][FA] | [DF]2 [FA]2 [EG][DF] | [CE][Ec] [DB]2 [DE]2 | [CA]4 || %9
w: bear, How the|soul to God is|lift- ed, Thro’ the|wond- rous power of|prayer.|
w: stayed; Prayer that|gives us joy and|com- fort, Tho’ the|an- swer be de-|layed.|
w: near, When we|feel His love with-|in us, Cast- ing|out our ev- ery|fear.|
w: clares, If we|call on Him be-|liev- ing, He will|grant our fer- vent|prayers.|
"^Refrain" [EG][EA] | [GB]3 [Gd] [Gc][GB] | A2 [Ac]2 [GB][Gc] | [Gd]3 [Ee] [Ec][EA] | %13
w: ||||
w: ||||
w: ||||
w: ||||
 [EB]4 [Ec]>[DB] | [CA]3 [=EG] [FB][FA] | [DF]2 [FA]2 [EG]>[DF] | [CE][Ec] [DB]2 [DE]2 | [CA]4 |] %18
w: |||||
w: |||||
w: |||||
w: |||||
V:2
 x2 | x6 | x6 | x6 | x6 | x6 | x6 | x6 | x4 || x2 | x6 | A2 x4 | x6 | x6 | x6 | x6 | x6 | x4 |] %18
V:3
 [A,,A,]>[A,,E,] | [A,,E,]3 [C,A,] [D,A,][D,A,] | [D,A,]2 [D,A,]2 [D,A,]>[F,A,] | %3
w: ~ ~|~ ~ ~ ~|~ ~ ~ ~|
 A,3 [A,,A,] [B,,F,]>[B,,B,] | [E,G,]4 [E,C]>[G,B,] | A,3 [C,B,] [D,A,][D,A,] | %6
w: ~ ~ ~ ~|~ ~ ~|~ ~ ~ ~|
 [D,A,]2 [D,A,]2 [D,A,][D,A,] | [E,A,][E,A,] [E,G,]2 [E,G,]2 | [A,,A,]4 || [E,B,][E,C] | %10
w: ~ ~ ~ ~|~ ~ ~ On-|ly|trust the|
 [E,D]3 [E,F] [E,E][E,D] | [A,C]2 [A,E]2 [E,D][E,C] | [E,B,]3 [G,B,] A,[C,A,] | %13
w: Sav- ior’s prom- ise,|Do His will, what-|e’er it be; Then|
 [E,G,]4 [A,,A,]>[A,,E,] | [A,,E,]3 [C,B,] [D,A,][D,A,] | [D,A,]2 [D,A,]2 [D,A,]>[D,A,] | %16
w: faith will hear|Him say- ing, “Come|and find a rest|
 [E,A,][E,A,] [E,G,]2 [E,G,]2 | [A,,A,]4 |] %18
w: in Me.” * *||
V:4
 x2 | x6 | x6 | A,3 x3 | x6 | A,3 x3 | x6 | x6 | x4 || x2 | x6 | x6 | x4 A, x | x6 | x6 | x6 | x6 | %17
w: |||~||~|||||||our|||||
 x4 |] %18
w: |

